dist/img/yt-btn.svg

<svg width="64" height="45" viewBox="0 0 64 45" fill="none" xmlns="http://www.w3.org/2000/svg">
<path d="M55.307 44.5097C55.307 44.5097 37.8291 45 32.0031 45C26.1771 45 8.69906 44.5097 8.69906 44.5097C4.18606 44.5097 0.491069 40.7996 0.491069 36.2629C0.491069 36.2629 0.00305176 25.9451 0.00305176 22.4988C0.00305176 19.0526 0.491069 8.73476 0.491069 8.73476C0.488745 4.20044 4.18141 0.490323 8.69673 0.490323C8.69673 0.490323 26.1747 0 32.0007 0C37.8267 0 55.3047 0.490323 55.3047 0.490323C59.8177 0.490323 63.5127 4.20044 63.5127 8.73709C63.5127 8.73709 64.0007 19.0456 64.0007 22.5012C64.0007 25.9568 63.5127 36.2652 63.5127 36.2652C63.5127 40.7996 59.82 44.5097 55.307 44.5097Z" fill="#FF0000"/>
<path fill-rule="evenodd" clip-rule="evenodd" d="M25.8719 32.5551V12.4448L42.0415 22.4988L25.8719 32.5551Z" fill="white"/>
</svg>

<svg width="64" height="45" fill="none" xmlns="http://www.w3.org/2000/svg"><path d="M55.307 44.51S37.829 45 32.003 45C26.177 45 8.7 44.51 8.7 44.51c-4.513 0-8.208-3.71-8.208-8.247 0 0-.488-10.318-.488-13.764 0-3.446.488-13.764.488-13.764C.49 4.2 4.181.49 8.697.49 8.697.49 26.175 0 32 0c5.826 0 23.304.49 23.304.49 4.513 0 8.208 3.71 8.208 8.247 0 0 .488 10.309.488 13.764 0 3.456-.488 13.764-.488 13.764 0 4.535-3.693 8.245-8.206 8.245z" fill="red"/><path fill-rule="evenodd" clip-rule="evenodd" d="M25.872 32.555v-20.11l16.17 10.054-16.17 10.056z" fill="#fff"/></svg>
